!!!OTL: Nonnenlied.
!!!OTL-incipit: ICH ESSE NICHT GERNE DIE GERSTE
!!!ARE: Europa, Mitteleuropa, Deutschland, Niederrhein
!!!SCT: Z1248
!!!TXL: @@DE
!!!YEM: Copyright 1995, estate of Helmut Schaffrath.
**kern	**text
*ICvox	*
*M6/8	*
*k[f#c#g#]	*
*A:	*
!LO:TX:a:t=Vom Niederrhein.	!
{8e	Jch
=1	=1
8e	eſ-
8a	-ſe
8a	nicht
8a	ger-
8b/	-ne
8cc#	die
=2	=2
4.cc#	Ger-
4b}	-ſte,
{8a	ich
=3	=3
8a	ſteh
8cc#	nicht
8cc#	gern
4dd	frü-
8b	-he
=4	=4
[4.a	auf,
8a]	.
8r}	.
{8cc#	hätt'
=5	=5
8dd	ich
8dd	meines
8dd	.
4dd	Va-
8ee	-ters
=6	=6
(4dd	Schlüſ-
8b)	.
(4dd	-ſel,
8ee)}	.
=7	=7
{4.a	ja,
4.e	ja,
=8	=8
(<4a	Schlüſ-
8cc#)	.
4ee}	-ſel,
{8ff#	dann
=9	=9
8ee	ſchlöß
8cc#	ich
8a	mir
8bL	hier
8cc#J	.
8b	wohl
=10	=10
4.a	auf!
4r}	.
==	==
!!!AGN: Liebes - Lied
!!!ONB: ESAC (Essen Associative Code) Database: ZUCCAL
!!!AMT: compound duple
!!!AIN: vox
!!!EED: Helmut Schaffrath
!!!EEV: 1.0
!!!RDF**kern: <= below
!!!GTL: V. Lieder der Minne.
!!!URL-scan: https://www.digitale-sammlungen.de/de/view/bsb11160573?page=462
!!!ENC: Anna Maria Matuszewska
!!!EEV: 2025/02/06
*-	*-
